app/dist/common/images/fg-financial-800-cumulative-series-a-preferred-stock.svg

<svg height="18" viewBox="0 0 18 18" width="18" xmlns="http://www.w3.org/2000/svg"><path d="m0 0h18v18h-18z" fill="#164273"/><path d="m9 6h-5v6h1v-3h2.39a3.35 3.35 0 0 1 .12-1h-2.51v-1h2.98c.27-.39.62-.73 1.02-1zm4.7 1.34-.8.66c-.22-.48-1.09-1-1.76-1a2.07 2.07 0 0 0 -2.14 1.95c0 .83.56 2.05 2 2.05 1.11 0 1.66-.59 1.75-1h-1.75v-1.05h3c0 1.75-.92 3.05-3 3.05-2.09 0-3-1.38-3-3 0-1.88 1.4-3 3.2-3 1.5 0 2.26.9 2.5 1.34z" fill="#f0f3fa"/></svg>

<!-- by TradingView --><svg width="18" height="18" viewBox="0 0 18 18" xmlns="http://www.w3.org/2000/svg"><path fill="#164273" d="M0 0h18v18H0z"/><path d="M9 6H4v6h1V9h2.39a3.35 3.35 0 0 1 .12-1H5V7h2.98c.27-.39.62-.73 1.02-1ZM13.7 7.34l-.8.66c-.22-.48-1.09-1-1.76-1A2.07 2.07 0 0 0 9 8.95c0 .83.56 2.05 2 2.05 1.11 0 1.66-.59 1.75-1H11V8.95h3c0 1.75-.92 3.05-3 3.05-2.09 0-3-1.38-3-3 0-1.88 1.4-3 3.2-3 1.5 0 2.26.9 2.5 1.34Z" fill="#F0F3FA"/></svg>
